X:56
T:Bluegrass Twist
C:Bill Monroe
N:Arranged by Ronnie McCoury
R:bluegrass
L:1/8
Q:1/4=206
M:4/4
K:C
z4 zD ED | "D"F/^F/d =F^F d4 | g_b gf dc _B=B | "G"G2 [GG,][GG,] D/^C/=C _B,/=B,/G | 
[G4G,4] z[DG,] [EG,][DG,] | "G"[GG,][GG,] [GG,][GG,] [GG,][GG,] [GG,][GG,] | {_B}=BG {_B}=BG {_B}=BG Bd | 
gg gg gg g_b | gf dc {_B}=BG F{^D}E | "C"CC EG _B=B GE | CC EG {_B}=Bd c{_B}=B | 
"G"G2 [dDG,][dDG,] D/^C/=C _B,/=B,/G | [G2G,2] [G2G,2] [G2G,2] [GG,]D | "D"F/^F/d =F^F d2 d2 | 
g_b g{f}^f dc _B=B | "G"G2 GD F/E/D F/E/D | [D8G,8] ||

